public/images/website/github.svg

<?xml version="1.0" encoding="UTF-8"?>
<svg width="49px" height="48px" viewBox="0 0 49 48" version="1.1" xmlns="http://www.w3.org/2000/svg" xmlns:xlink="http://www.w3.org/1999/xlink">
    <!-- Generator: Sketch 53.2 (72643) - https://sketchapp.com -->
    <title>github</title>
    <desc>Created with Sketch.</desc>
    <g id="Page-1" stroke="none" stroke-width="1" fill="none" fill-rule="evenodd">
        <g id="GitHub" fill="#161514">
            <path d="M23.99779,0 C10.7465545,0 0,10.7874882 0,24.095459 C0,34.7409481 6.87608582,43.7711984 16.4130268,46.9573015 C17.6138003,47.1791749 18.0513828,46.4351592 18.0513828,45.7961636 C18.0513828,45.2252092 18.030756,43.7090739 18.0189693,41.6989002 C11.3432579,43.1543902 9.93474324,38.4684225 9.93474324,38.4684225 C8.84299702,35.68465 7.26946806,34.9435926 7.26946806,34.9435926 C5.09039565,33.4496445 7.43448234,33.4792277 7.43448234,33.4792277 C9.84339605,33.6493307 11.1104699,35.9627314 11.1104699,35.9627314 C13.2512355,39.6443519 16.7283219,38.5808384 18.095583,37.9640301 C18.3136376,36.4079575 18.9339145,35.3459231 19.6190184,34.7439065 C14.2899414,34.1359731 8.6868228,32.0681124 8.6868228,22.8352177 C8.6868228,20.2052775 9.62239479,18.0531048 11.1576169,16.3698247 C10.9100955,15.7604122 10.0864974,13.30945 11.3933515,9.99318115 C11.3933515,9.99318115 13.4074097,9.34531061 17.9924491,12.4633725 C19.90632,11.9279178 21.9601584,11.6616697 24.0007367,11.6513156 C26.0398416,11.6616697 28.0922066,11.9279178 30.0090242,12.4633725 C34.591117,9.34531061 36.6022284,9.99318115 36.6022284,9.99318115 C37.9120292,13.30945 37.0884312,15.7604122 36.8423831,16.3698247 C38.3805519,18.0531048 39.3087572,20.2052775 39.3087572,22.8352177 C39.3087572,32.0917789 33.6967986,34.1285774 28.3515148,34.7246774 C29.2119463,35.4686931 29.9795574,36.9389747 29.9795574,39.1872925 C29.9795574,42.4074162 29.9500905,45.0062941 29.9500905,45.7961636 C29.9500905,46.4410759 30.383253,47.1910082 31.6002333,46.9558223 C41.1298075,43.7623235 48,34.7379898 48,24.095459 C48,10.7874882 37.2534455,0 23.99779,0" id="Fill-3"></path>
        </g>
    </g>
</svg>

<svg width="49" height="48" xmlns="http://www.w3.org/2000/svg"><path d="M23.998 0C10.747 0 0 10.787 0 24.095a24.09 24.09 0 0 0 16.413 22.862c1.2.222 1.638-.522 1.638-1.16 0-.572-.02-2.088-.032-4.098-6.676 1.455-8.084-3.23-8.084-3.23-1.092-2.784-2.666-3.525-2.666-3.525-2.179-1.494.165-1.465.165-1.465 2.41.17 3.676 2.484 3.676 2.484 2.141 3.681 5.618 2.618 6.986 2.001.218-1.556.838-2.618 1.523-3.22-5.33-.608-10.932-2.676-10.932-11.909 0-2.63.935-4.782 2.47-6.465-.247-.61-1.07-3.06.236-6.377 0 0 2.014-.648 6.6 2.47 1.913-.535 3.967-.801 6.008-.812 2.039.01 4.091.277 6.008.812 4.582-3.118 6.593-2.47 6.593-2.47 1.31 3.316.486 5.767.24 6.377 1.539 1.683 2.467 3.835 2.467 6.465 0 9.257-5.612 11.294-10.957 11.89.86.744 1.628 2.214 1.628 4.462 0 3.22-.03 5.82-.03 6.61 0 .644.433 1.394 1.65 1.159C41.13 43.762 48 34.738 48 24.096 48 10.786 37.253 0 23.998 0" fill="#161514" fill-rule="evenodd"/></svg>
